svgs/sharp-light/folders.svg

<svg xmlns="http://www.w3.org/2000/svg" viewBox="0 0 576 512"><!--! Font Awesome Pro 6.6.0 by @fontawesome - https://fontawesome.com License - https://fontawesome.com/license (Commercial License) Copyright 2024 Fonticons, Inc. --><path d="M304 32L128 32 96 32l0 32 0 288 0 32 32 0 416 0 32 0 0-32 0-224 0-32-32 0L368 96 304 32zm64 96l176 0 0 224-416 0 0-288 162.7 0 54.6 54.6 9.4 9.4 13.3 0zM32 112l0-16L0 96l0 16L0 464l0 16 16 0 448 0 16 0 0-32-16 0L32 448l0-336z"/></svg>

<svg xmlns="http://www.w3.org/2000/svg" viewBox="0 0 576 512"><!--! Font Awesome Pro 6.5.2 by @fontawesome - https://fontawesome.com License - https://fontawesome.com/license (Commercial License) Copyright 2024 Fonticons, Inc. --><path d="M304 32H128 96V64 352v32h32H544h32V352 128 96H544 368L304 32zm64 96H544V352H128V64H290.7l54.6 54.6 9.4 9.4H368zM32 112V96H0v16V464v16H16 464h16V448H464 32V112z"/></svg>
